X: 30571
T: One After It, The
R: jig
M: 6/8
K: Dmixolydian
E|:F2D DCA,|CDE D2A|~d3 fde|d^cA ~G3|
AdB c2A|BGA FDE|=FCA, (3=FGA =F|GEA D2E:|
^c|:daf ~g3|ece age|daf gfg|cde d2e|
fga efg|cde E^GB|A^ce d^cA|GEA D3:|

